X: 1598
T: Jim Seymour's Barn Dance
B: australian traditional tunes wiki
M:6/8
L:1/8
R: Jig
Q: 3/8=100
K:D
V:1 
(3ABc|"D"d3d2e|d2c B2c|df2A3-|A3afe|d3afd|"A7"c3bge|"G"B6-|B6|
"Em"e3e2f|"A7"e2^de2f|"G"gb2B3|B3-B2c|"D"d2cd2f|"A7"e2gf2b|""a2b"Em"e2f|"A7"g3ABc||
"D"d3d2e|d2cB2c|df2A3|A3afe|d3afd|"A7"c3bge|"G"B6-|B6|
"A7"e2de2f|"G"gb2B2c|"D"d2cd2e|fa2A2c|"G"B2^AB2d|"A7"c2Bc2a|"D"d3d3|d3z3||
% abcbook-tune_id 6342d53ac973e3b8598c2960


% abcbook-boost 0
% abcbook-tablature 
% abcbook-transpose 
% abcbook-lastupdated 1665324373182
% abcbook-soundfonts 
% abcbook-repeats 1
% NFF Book 2006

